select-multiple-marker.svg

<svg fill="currentColor" viewBox="0 0 24 24"><path d="M7 4h1v2H6V5c0-.55.45-1 1-1m12 0c.55 0 1 .45 1 1v1h-2V4zm-5 2V4h2v2zm-4 0V4h2v2zm0 12v-2h2v2zm-3 0c-.55 0-1-.45-1-1v-1h2v2zm-1-6h2v2H6zm0-4h2v2H6zm14 0v2h-2V8zM3 8h1v12h10.58l1.45 2H3c-.55 0-1-.45-1-1V9c0-.55.45-1 1-1m15.5 4c1.9 0 3.5 1.6 3.5 3.5 0 2.6-3.5 6.5-3.5 6.5S15 18.1 15 15.5c0-1.9 1.6-3.5 3.5-3.5m0 4.8c.7 0 1.3-.6 1.2-1.2 0-.6-.6-1.2-1.2-1.2s-1.2.5-1.2 1.2c0 .6.5 1.2 1.2 1.2"/></svg>

<svg  viewBox="0 0 24 24" fill="currentColor"><path  d="M7 4H8V6H6V5C6 4.45 6.45 4 7 4M19 4C19.55 4 20 4.45 20 5V6H18V4H19M14 6V4H16V6H14M10 6V4H12V6H10M10 18V16H12V18H10M7 18C6.45 18 6 17.55 6 17V16H8V18H7M6 12H8V14H6V12M6 8H8V10H6V8M20 8V10H18V8H20M3 8H4V20H14.58L16.03 22L3 22C2.45 22 2 21.55 2 21V9C2 8.45 2.45 8 3 8M18.5 12C20.4 12 22 13.6 22 15.5C22 18.1 18.5 22 18.5 22C18.5 22 15 18.1 15 15.5C15 13.6 16.6 12 18.5 12M18.5 16.8C19.2 16.8 19.8 16.2 19.7 15.6C19.7 15 19.1 14.4 18.5 14.4C17.9 14.4 17.3 14.9 17.3 15.6C17.3 16.2 17.8 16.8 18.5 16.8Z"/></svg>
